assets/arena_icon.svg

<!-- Generated by IcoMoon.io -->
<svg version="1.1" xmlns="http://www.w3.org/2000/svg" width="32" height="32" viewBox="0 0 32 32">
<title>parl3</title>
<path fill="#444" d="M21.319 3.617c0.173 0.183 0.253 0.423 0.24 0.722-0.411 0.315-0.577 0.825-0.499 1.529 6.512 16.53 9.266 20.533 10.721 21.938 0.214 0.385 0.214 0.577 0 0.577h-11.17c-0.299 0-0.404-0.192-0.316-0.577 0.51-0.754 0.765-1.581 0.765-2.48 0-1.35-8.523-20.2-9.379-20.675-0.571-0.317-0.657-0.662-0.26-1.034h9.898zM4.583 19.841c-0.122 0.020-0.143 0.067-0.149 0.189 0 2.335-1.723 4.457-4.18 7.625-0.261 0.213-0.261 0.4 0 0.563 3.514 0 5.926 0 7.235 0 0.191 0 0.227-0.137 0.222-0.205-0.176-2.056-0.543-4.137-1.413-6.024-0.271-0.587-0.969-1.991-1.715-2.149zM8.559 5.659c0 0-0.373 0.26-0.409 1.555-0.154 5.472-0.567 7.264-0.567 7.264l-0.846 0.1c0 0-0.362-1.144-0.464-3.209-0.103-2.067-0.154-3.661-0.435-3.659-0.284 0-0.362 1.694-0.467 3.634-0.1 1.94-0.357 3.558-0.357 3.558l-0.924 0.299c0 0-0.362-1.268-0.567-2.387-0.205-1.121-0.257-2.39-0.411-2.39s-0.386 0.87-0.489 3.16c-0.103 2.288-0.127 2.735-0.127 2.735s3.034 1.096 4.216 3.934c1.183 2.836 1.483 5.298 1.492 5.572 0.015 0.424 0.357 0.478 0.357 0.478s0.297-0.054 0.357-0.478c0.038-0.271 0.308-2.736 1.491-5.572 1.181-2.838 4.216-3.934 4.216-3.934s-0.025-0.447-0.127-2.735c-0.103-2.291-0.335-3.16-0.489-3.16-0.156 0-0.205 1.269-0.411 2.39-0.205 1.118-0.567 2.387-0.567 2.387l-0.924-0.299c0 0-0.259-1.619-0.362-3.558-0.1-1.94-0.178-3.634-0.464-3.634-0.279-0.002-0.333 1.593-0.435 3.659-0.103 2.065-0.462 3.209-0.462 3.209l-0.848-0.1c0 0-0.411-1.792-0.565-7.264-0.036-1.295-0.409-1.555-0.409-1.555z"></path>
</svg>

<?xml version="1.0" encoding="UTF-8" standalone="no"?>
<!DOCTYPE svg PUBLIC "-//W3C//DTD SVG 1.1//EN" "http://www.w3.org/Graphics/SVG/1.1/DTD/svg11.dtd">
<svg width="100%" height="100%" viewBox="0 0 32 32" version="1.1" xmlns="http://www.w3.org/2000/svg" xmlns:xlink="http://www.w3.org/1999/xlink" xml:space="preserve" xmlns:serif="http://www.serif.com/" style="fill-rule:evenodd;clip-rule:evenodd;stroke-linejoin:round;stroke-miterlimit:2;">
    <g id="Arena" transform="matrix(0.942152,0,0,0.942152,0.925688,0.92557)">
        <path d="M21.319,3.617C21.492,3.8 21.572,4.04 21.559,4.339C21.148,4.654 20.982,5.164 21.06,5.868C27.572,22.398 30.326,26.401 31.781,27.806C31.995,28.191 31.995,28.383 31.781,28.383L20.611,28.383C20.312,28.383 20.207,28.191 20.295,27.806C20.805,27.052 21.06,26.225 21.06,25.326C21.06,23.976 12.537,5.126 11.681,4.651C11.11,4.334 11.024,3.989 11.421,3.617L21.319,3.617ZM4.583,19.841C4.461,19.861 4.44,19.908 4.434,20.03C4.434,22.365 2.711,24.487 0.254,27.655C-0.007,27.868 -0.007,28.055 0.254,28.218L7.489,28.218C7.68,28.218 7.716,28.081 7.711,28.013C7.535,25.957 7.168,23.876 6.298,21.989C6.027,21.402 5.329,19.998 4.583,19.84L4.583,19.841ZM8.559,5.659C8.559,5.659 8.186,5.919 8.15,7.214C7.996,12.686 7.583,14.478 7.583,14.478L6.737,14.578C6.737,14.578 6.375,13.434 6.273,11.369C6.17,9.302 6.119,7.708 5.838,7.71C5.554,7.71 5.476,9.404 5.371,11.344C5.271,13.284 5.014,14.902 5.014,14.902L4.09,15.201C4.09,15.201 3.728,13.933 3.523,12.814C3.318,11.693 3.266,10.424 3.112,10.424C2.958,10.424 2.726,11.294 2.623,13.584C2.52,15.872 2.496,16.319 2.496,16.319C2.496,16.319 5.53,17.415 6.712,20.253C7.895,23.089 8.195,25.551 8.204,25.825C8.219,26.249 8.561,26.303 8.561,26.303C8.561,26.303 8.858,26.249 8.918,25.825C8.956,25.554 9.226,23.089 10.409,20.253C11.59,17.415 14.625,16.319 14.625,16.319C14.625,16.319 14.6,15.872 14.498,13.584C14.395,11.293 14.163,10.424 14.009,10.424C13.853,10.424 13.804,11.693 13.598,12.814C13.393,13.932 13.031,15.201 13.031,15.201L12.107,14.902C12.107,14.902 11.848,13.283 11.745,11.344C11.645,9.404 11.567,7.71 11.281,7.71C11.002,7.708 10.948,9.303 10.846,11.369C10.743,13.434 10.384,14.578 10.384,14.578L9.536,14.478C9.536,14.478 9.125,12.686 8.971,7.214C8.935,5.919 8.562,5.659 8.562,5.659L8.559,5.659Z" style="fill-rule:nonzero;"/>
    </g>
</svg>
